lib/preview/nrk-logo-preview-nrk-tegnspraak-symbol-on-dark.svg

<svg width="55" height="20" viewBox="0 0 55 20" fill="none" xmlns="http://www.w3.org/2000/svg">
<path d="M0 16.0057V4.00683H3.93719V16.0057H0ZM9.29381 5.91652L11.5581 16.0057H7.24917L4.54549 4.00683H6.96218C7.51635 3.99964 8.05406 4.19499 8.4745 4.55613C8.89562 4.90212 9.18495 5.38243 9.29381 5.91652ZM12.1495 16.0057V4.00683H16.0867V16.0057H12.1495ZM19.0605 8.56984C18.6362 8.57397 18.2188 8.46297 17.8525 8.2487C17.4912 8.03986 17.1911 7.7397 16.9823 7.37834C16.7678 7.01207 16.6568 6.5945 16.661 6.17006C16.6561 5.7482 16.7672 5.33312 16.9823 4.97016C17.1933 4.61273 17.4931 4.31583 17.8525 4.10826C18.2189 3.89424 18.6362 3.78325 19.0605 3.78712C19.4822 3.78258 19.8971 3.89367 20.2602 4.10826C20.616 4.31765 20.9127 4.6143 21.122 4.97016C21.3368 5.33322 21.4479 5.74823 21.4433 6.17006C21.4473 6.59447 21.3363 7.01196 21.122 7.37834C20.9149 7.73811 20.6179 8.03802 20.2602 8.2487C19.8971 8.46371 19.4819 8.57483 19.0599 8.56984H19.0605ZM22.0516 16.0057V4.00683H25.9892V16.0057H22.0516ZM30.9737 10.564C30.9848 10.5756 31.0693 10.7136 31.2272 10.978C31.3851 11.2424 31.5906 11.5804 31.8439 11.992C32.0974 12.4034 32.3649 12.84 32.6463 13.3017C32.9278 13.7635 33.1926 14.2001 33.4408 14.6115C33.6881 15.0229 33.9697 15.4877 34.2857 16.0057H29.9598C29.6893 15.5663 29.4441 15.1692 29.2245 14.8143C29.0048 14.4594 28.7713 14.0763 28.5238 13.6651C28.2758 13.2542 28.0306 12.8543 27.7882 12.4652C27.5458 12.0761 27.3375 11.7354 27.1633 11.4428C26.9883 11.1501 26.8671 10.9529 26.7997 10.8513C26.6325 10.5992 26.5336 10.308 26.5127 10.0063C26.5294 9.71667 26.6226 9.43671 26.7828 9.19485C26.8504 9.08218 26.9743 8.88216 27.1545 8.59487C27.3348 8.30757 27.546 7.96679 27.7882 7.57246C28.0304 7.17813 28.2756 6.77534 28.5238 6.36411C28.772 5.95288 29.0056 5.56697 29.2245 5.20644C29.4445 4.84629 29.6897 4.44632 29.9598 4.00655H34.2857L30.9396 9.46523C30.8361 9.6273 30.7777 9.81408 30.7706 10.0063C30.7818 10.2081 30.8522 10.4021 30.9731 10.564H30.9737Z" fill="white"/>
<ellipse cx="45.1428" cy="10.0058" rx="8.85714" ry="8.85714" fill="white"/>
<path fill-rule="evenodd" clip-rule="evenodd" d="M51.6078 16.4707C53.3225 14.7561 54.2857 12.4306 54.2857 10.0058C54.2857 7.58094 53.3225 5.25542 51.6078 3.5408C49.8932 1.82618 47.5677 0.862915 45.1429 0.862915C42.718 0.862915 40.3925 1.82618 38.6779 3.5408C36.9633 5.25542 36 7.58094 36 10.0058C36 12.4306 36.9633 14.7561 38.6779 16.4707C40.3925 18.1854 42.718 19.1486 45.1429 19.1486C47.5677 19.1486 49.8932 18.1854 51.6078 16.4707ZM48.5111 5.97215L45.58 7.55929L45.5811 7.55729C45.54 7.57972 45.5094 7.6175 45.4959 7.66239C45.4825 7.70729 45.4873 7.75567 45.5094 7.79701L45.5208 7.81787C45.5432 7.85907 45.581 7.88973 45.6259 7.90311C45.6709 7.9165 45.7193 7.91154 45.7605 7.88929L47.8445 6.763C47.9433 6.70626 48.0604 6.69086 48.1705 6.72013C48.2805 6.74941 48.3745 6.82099 48.432 6.91929C48.4828 7.0212 48.4912 7.13907 48.4555 7.24719C48.4197 7.3553 48.3427 7.4449 48.2411 7.49644L46.1788 8.61158C46.1323 8.63473 46.0969 8.67533 46.0802 8.72451C46.0635 8.77369 46.0669 8.82747 46.0897 8.87415C46.1163 8.91885 46.1595 8.95122 46.2098 8.96423C46.2602 8.97723 46.3136 8.96981 46.3585 8.94358L46.9234 8.63786L46.9748 8.60929L47.9045 8.10644C48.0033 8.04966 48.1204 8.03419 48.2305 8.06341C48.3406 8.09263 48.4347 8.16417 48.4923 8.26244C48.5431 8.3644 48.5515 8.4823 48.5158 8.59046C48.48 8.69862 48.403 8.78827 48.3014 8.83986L46.9134 9.59044L46.6903 9.70929C46.639 9.57059 46.5407 9.4543 46.4124 9.38072C46.2842 9.30714 46.1341 9.28095 45.9885 9.30672L43.4608 9.789C43.3873 9.80661 43.3162 9.83319 43.2491 9.86815C43.0617 9.6993 42.9049 9.4993 42.7857 9.27701C42.6155 8.96256 42.5238 8.61168 42.5183 8.25418C42.5127 7.89668 42.5936 7.54313 42.754 7.22357C42.7557 7.22072 42.7557 7.21786 42.7557 7.215L43.8151 4.85415C43.8591 4.74909 43.9428 4.6657 44.0481 4.62218C44.1533 4.57866 44.2715 4.57854 44.3768 4.62186C44.4793 4.67207 44.5577 4.76068 44.5952 4.86844C44.6327 4.97619 44.6261 5.09438 44.5768 5.19729L44.234 5.96072L44.7883 5.66101C44.7924 5.65874 44.7965 5.65734 44.8007 5.65595C44.8054 5.65435 44.8101 5.65276 44.8148 5.64986C44.8187 5.64752 44.8222 5.64491 44.8257 5.64232C44.8304 5.6389 44.8351 5.63548 44.8403 5.63272L47.0843 4.41901C47.183 4.36219 47.3001 4.34673 47.4102 4.37601C47.5203 4.4053 47.6143 4.47694 47.6717 4.57529C47.7225 4.67721 47.7309 4.79507 47.6952 4.90318C47.6594 5.0113 47.5824 5.10089 47.4808 5.15243L45.0034 6.49215C44.9622 6.51463 44.9315 6.55253 44.9181 6.59755C44.9047 6.64258 44.9097 6.69107 44.932 6.73243L44.9428 6.75301C44.9653 6.79426 45.0032 6.82492 45.0482 6.8383C45.0933 6.85169 45.1418 6.84671 45.1831 6.82444L48.1145 5.23901C48.2132 5.18224 48.3304 5.16678 48.4404 5.196C48.5504 5.22523 48.6445 5.29676 48.702 5.39501C48.7528 5.49692 48.7612 5.61479 48.7255 5.7229C48.6897 5.83102 48.6127 5.92061 48.5111 5.97215ZM45.1483 11.897L48.1357 13.3644C48.239 13.4119 48.3197 13.4982 48.3595 13.6047C48.3994 13.7112 48.3956 13.8291 48.3488 13.9327C48.2953 14.033 48.2042 14.1081 48.0955 14.1416C47.9868 14.1751 47.8693 14.1643 47.7685 14.1116L44.7823 12.6441C44.7402 12.6236 44.6917 12.6205 44.6473 12.6356C44.603 12.6507 44.5665 12.6827 44.5457 12.7247L44.5351 12.7459C44.5146 12.788 44.5117 12.8365 44.5268 12.8808C44.542 12.9251 44.574 12.9617 44.616 12.9824L46.7408 14.0264C46.8442 14.0739 46.9245 14.1604 46.9644 14.2669C47.0043 14.3734 47.0004 14.4913 46.9537 14.595C46.9001 14.6953 46.8091 14.7703 46.7005 14.8037C46.5918 14.8372 46.4744 14.8263 46.3737 14.7736L44.272 13.7413C44.2262 13.7168 44.1726 13.7114 44.1229 13.7263C44.0732 13.7412 44.0313 13.7751 44.0066 13.8207C43.9856 13.8683 43.9843 13.9221 44.003 13.9706C44.0216 14.0191 44.0586 14.0583 44.106 14.0796L45.6811 14.8536C45.7844 14.9011 45.8647 14.9874 45.9046 15.0939C45.9444 15.2003 45.9406 15.3182 45.894 15.4219C45.8405 15.5222 45.7495 15.5973 45.6408 15.6308C45.5322 15.6643 45.4147 15.6535 45.314 15.6007L43.9 14.9059C43.9 14.9059 42.6177 14.265 42.5857 14.2364C42.118 13.9444 41.7753 13.4891 41.6239 12.9589C41.4726 12.4286 41.5234 11.8611 41.7665 11.3662C41.9239 11.0457 42.1563 10.768 42.4439 10.5566C42.7316 10.3452 43.066 10.2063 43.4188 10.1519C43.4203 10.1516 43.4215 10.1509 43.4226 10.1501C43.424 10.1493 43.4254 10.1484 43.4271 10.1484L45.9611 9.64415C46.0161 9.63147 46.073 9.62975 46.1286 9.63911C46.1842 9.64847 46.2374 9.66871 46.2852 9.69868C46.333 9.72865 46.3744 9.76774 46.407 9.81374C46.4397 9.85974 46.4629 9.91173 46.4754 9.96672C46.4938 10.0791 46.4671 10.1941 46.401 10.2869C46.335 10.3796 46.235 10.4425 46.1228 10.4619L45.3034 10.625L45.8683 10.9024C45.8721 10.9043 45.8754 10.9067 45.8787 10.9092C45.8829 10.9122 45.8871 10.9154 45.8926 10.9176C45.8966 10.9192 45.9005 10.9206 45.9045 10.9219C45.9101 10.9239 45.9156 10.9258 45.9211 10.9284L48.2068 12.0519C48.3101 12.0994 48.3904 12.1857 48.4303 12.2922C48.4702 12.3986 48.4663 12.5165 48.4197 12.6201C48.3661 12.7204 48.275 12.7954 48.1663 12.8289C48.0576 12.8623 47.9401 12.8515 47.8394 12.7987L45.3148 11.5584C45.2727 11.5379 45.2241 11.5348 45.1797 11.55C45.1353 11.5651 45.0988 11.5972 45.078 11.6393L45.0677 11.6604C45.0472 11.7025 45.0442 11.751 45.0593 11.7953C45.0744 11.8396 45.1063 11.8762 45.1483 11.897Z" fill="#1767CE"/>
</svg>

<svg xmlns="http://www.w3.org/2000/svg" viewBox="0 0 55 20"><path fill="#fff" d="M0 16.006v-12h3.937v12H0Zm9.294-10.09 2.264 10.09H7.25l-2.704-12h2.417a2.276 2.276 0 0 1 1.513.55c.42.346.71.826.819 1.36Zm2.855 10.09v-12h3.938v12h-3.938Zm6.912-7.436a2.382 2.382 0 0 1-2.4-2.4 2.301 2.301 0 0 1 .321-1.2 2.41 2.41 0 0 1 3.278-.862c.356.21.653.506.862.862.215.363.326.778.321 1.2a2.35 2.35 0 0 1-.321 1.208 2.4 2.4 0 0 1-.862.87 2.302 2.302 0 0 1-1.2.322Zm2.99 7.436v-12h3.938v12h-3.937Zm8.923-5.442c.01.012.095.15.253.414s.364.602.617 1.014a315.936 315.936 0 0 1 1.597 2.62c.247.41.529.876.845 1.394H29.96c-.27-.44-.516-.837-.736-1.192-.22-.355-.453-.738-.7-1.149-.248-.41-.493-.81-.736-1.2-.242-.389-.45-.73-.625-1.022a18.04 18.04 0 0 0-.363-.592 1.747 1.747 0 0 1-.287-.845c.016-.29.11-.57.27-.811.067-.113.191-.313.371-.6s.392-.628.634-1.023c.242-.394.488-.797.736-1.208l.7-1.158.736-1.2h4.326l-3.346 5.46a1.08 1.08 0 0 0-.17.54c.012.202.082.396.203.558Z"/><circle cx="45.143" cy="10.006" r="8.857" fill="#fff"/><path fill="#1767CE" fill-rule="evenodd" d="M51.608 16.47a9.142 9.142 0 1 0-12.93-12.929 9.142 9.142 0 0 0 12.93 12.93ZM48.51 5.973 45.58 7.56l.001-.002a.178.178 0 0 0-.072.24l.012.02a.177.177 0 0 0 .24.072l2.083-1.126a.432.432 0 0 1 .588.156.432.432 0 0 1-.19.577l-2.063 1.116a.197.197 0 0 0-.09.262.197.197 0 0 0 .27.07l.564-.306.052-.029.93-.503a.432.432 0 0 1 .587.156.432.432 0 0 1-.19.578l-1.389.75-.223.12a.631.631 0 0 0-.701-.403l-2.528.482a.924.924 0 0 0-.212.08 2.22 2.22 0 0 1-.495-2.645c.002-.003.002-.006.002-.009l1.06-2.36a.431.431 0 0 1 .56-.233.433.433 0 0 1 .2.575l-.342.764.554-.3a.07.07 0 0 1 .013-.005c.004-.002.01-.003.014-.006l.01-.008a.123.123 0 0 1 .015-.01l2.244-1.213a.431.431 0 0 1 .588.156.432.432 0 0 1-.191.577l-2.478 1.34a.178.178 0 0 0-.071.24l.01.021a.178.178 0 0 0 .241.071l2.931-1.585a.432.432 0 0 1 .588.156.432.432 0 0 1-.19.577Zm-3.363 5.925 2.988 1.467a.43.43 0 0 1 .213.569.43.43 0 0 1-.58.179l-2.987-1.468a.178.178 0 0 0-.236.08l-.01.022a.177.177 0 0 0 .08.236l2.125 1.044a.431.431 0 0 1 .213.569.43.43 0 0 1-.58.179l-2.102-1.033a.196.196 0 0 0-.265.08.196.196 0 0 0 .099.259l1.575.774a.43.43 0 0 1 .213.568.43.43 0 0 1-.58.179l-1.414-.695s-1.282-.641-1.314-.67a2.227 2.227 0 0 1-.142-3.68 2.217 2.217 0 0 1 .979-.406l.004-.002 2.534-.504a.429.429 0 0 1 .514.323.431.431 0 0 1-.352.495l-.82.163.565.277a.066.066 0 0 1 .01.007l.015.009a.19.19 0 0 0 .011.004l.017.006 2.286 1.124a.43.43 0 0 1 .213.568.431.431 0 0 1-.58.179l-2.525-1.24a.177.177 0 0 0-.237.08l-.01.021a.177.177 0 0 0 .08.237Z" clip-rule="evenodd"/></svg>
